packages/sources/icons/src/vitamix/volume-down-line.svg

<svg width="16" height="16" viewBox="0 0 16 16" fill="none" xmlns="http://www.w3.org/2000/svg">
<path fill-rule="evenodd" clip-rule="evenodd" d="M5.926 10.6667H3.33334C2.96515 10.6667 2.66667 10.3682 2.66667 9.99999V5.99999C2.66667 5.6318 2.96515 5.33333 3.33334 5.33333H5.926L9.45534 2.44533C9.55502 2.36361 9.69288 2.34668 9.80937 2.40186C9.92586 2.45704 10.0001 2.57443 10 2.70333V13.2967C10.0001 13.4256 9.92586 13.5429 9.80937 13.5981C9.69288 13.6533 9.55502 13.6364 9.45534 13.5547L5.92667 10.6667H5.926ZM8.66667 4.81334L6.402 6.66668H4.00001V9.33334H6.402L8.66667 11.1867V4.81334ZM11.6273 10.1126L12.5753 11.0606C13.4466 10.3266 14 9.22798 14 7.99998C14.001 6.72861 13.3968 5.53267 12.3726 4.77931L11.4133 5.73865C12.1666 6.20998 12.6666 7.04665 12.6666 7.99998C12.6674 8.82746 12.2833 9.60824 11.6273 10.1126Z" fill="#001018"/>
</svg>

<svg width="16" height="16" fill="none" xmlns="http://www.w3.org/2000/svg"><path fill-rule="evenodd" clip-rule="evenodd" d="M5.926 10.667H3.333A.667.667 0 0 1 2.667 10V6c0-.368.298-.667.666-.667h2.593l3.53-2.888a.333.333 0 0 1 .544.258v10.594a.333.333 0 0 1-.545.258l-3.528-2.888h-.001zm2.74-5.854L6.403 6.667H4v2.666h2.402l2.265 1.854V4.813zm2.961 5.3.948.948A3.991 3.991 0 0 0 14 8a3.994 3.994 0 0 0-1.627-3.22l-.96.959A2.663 2.663 0 0 1 12.667 8c0 .827-.384 1.608-1.04 2.113z" fill="#001018"/></svg>
